X: 235
T: Possum's Tail is Bare, The
B: canberra pickers and fiddlers
B: tunes
M:4/4
L:1/8
Q: 1/4=100
K:D
V:1 
DE|F2 FF FEDF|G2G2 B3B|A2F2 E2 (3EFE D2|A,>A, [A,3E3] DE|
F2 FF FEDF|G2G2 B3B|A2F2E2C2|D4-D3:|
|:FE|DFF2 A2B2|[E3=c3]c d2dc|BG G2 Bc d2|A3A A2 (3ABc|
d2 dd dBAF|G2 G2 B3B| A2F2E2C2|D4-D3:||
% abcbook-tune_id 63ae8f1c449c14d7a5e3319e
% abcbook-tune_composer_id 
% abcbook-link-0 https://www.youtube.com/watch?v=5bNrdobUbqQ
% abcbook-boost 0
% abcbook-difficulty 0
% abcbook-tags canberra pickers and fiddlers,old time tunes,© free
% abcbook-tablature 
% abcbook-transpose 
% abcbook-tuning ADAE
% abcbook-lastupdated 1672384284224
% abcbook-src-url https://tunebook.net/scrape/tunes.abc
% abcbook-soundfonts 
% abcbook-repeats 1


